X: 1134
T: Nicholas McAuliffe's
M: 12/8
L: 1/8
R: slide
K: G Major
|: GFE |
D2 G GFG ABc A2 G | FGA DEF G2 A Bcd |
DGF G2 G AA/B/c A2 G | F/G/AF DEF G3 :|
|: G2 A |
B/c/BB BGB c2 B c2 B | A^GA ABA =G/A/BA GFE |
DGF G2 G ABc A2 G | FAF DEF G3 :|
